X:233
T: FEINDE RINGSUM
N: F0402
O: Europa, Mitteleuropa, Deutschland
R: Vaterlands -, Heimat - Lied, nationalistisch, Krieg
M: 4/4
L: 1/8
K: F
 | F,4A,3F, | C4z4 |
C4D3E | F4z4 |
D2DDDB,FD | D2C2z4 |
D2DDDB,FD | D2C2z4 |
D4DCB,A, | G,4z4 |
C4D3E | F2z6

@@@ Tune index: 5664
